X: 4416
M: 3/4
L: 1/8
K: G
|:!p!\
d2B4 | d2B4 | (gf)agfe | d6 |\
[1,3 c2A4 | B2G4 | (EF)GBAG | (FG)ABc^c :|\
[2,4 c2a4 | B2g4 | (fe)dcBA | G2z2z2 ||
|:!mf!\
[1,3 AB^cded | d^ca2a2 | g2a3g | f4z2 :|\
[2,4 B^c^defg | bagfed | ^cBAGFE | D2d2"_D.C."z2 ||
[K:=f][K:C]\
[|!p!\


